src/img/icons/share.svg

<svg width="32" height="32" viewBox="0 0 32 32" fill="none" xmlns="http://www.w3.org/2000/svg">
<path d="M24.7305 30C23.6631 30 22.756 29.6259 22.0091 28.8778C21.2624 28.1295 20.8891 27.2209 20.8891 26.1522C20.8891 25.9767 20.9058 25.7791 20.9393 25.5591C20.9726 25.339 21.0258 25.1403 21.0991 24.9632L10.1051 18.5311C9.75165 18.9344 9.32579 19.2536 8.82753 19.4889C8.32951 19.7241 7.81104 19.8417 7.2721 19.8417C6.20474 19.8417 5.29762 19.4682 4.55071 18.721C3.80357 17.9739 3.42999 17.0666 3.42999 15.9993C3.42999 14.9319 3.80357 14.0249 4.55071 13.2783C5.29762 12.5316 6.20474 12.1583 7.2721 12.1583C7.81534 12.1583 8.33011 12.2669 8.8164 12.4842C9.30245 12.7017 9.73203 13.0121 10.1051 13.4154L21.0991 7.02205C21.0258 6.84903 20.9726 6.65793 20.9393 6.44877C20.9058 6.23961 20.8891 6.03739 20.8891 5.8421C20.8891 4.77475 21.2626 3.86762 22.0098 3.12072C22.7569 2.37357 23.6642 2 24.7315 2C25.7989 2 26.7059 2.37333 27.4526 3.12C28.1995 3.86691 28.5729 4.77367 28.5729 5.84031C28.5729 6.91532 28.1993 7.8246 27.4522 8.56815C26.7053 9.31195 25.7982 9.68385 24.7308 9.68385C24.1861 9.68385 23.6702 9.58393 23.1829 9.3841C22.6957 9.18451 22.2722 8.88309 21.9125 8.47985L10.9279 14.7759C10.9851 14.9575 11.0303 15.1618 11.0636 15.3887C11.0971 15.6158 11.1138 15.8205 11.1138 16.0029C11.1138 16.1855 11.0971 16.3755 11.0636 16.5729C11.0303 16.7704 10.9851 16.9599 10.9279 17.1415L21.9125 23.4961C22.2722 23.1347 22.6877 22.8477 23.1589 22.6349C23.6301 22.4224 24.1541 22.3162 24.7308 22.3162C25.7982 22.3162 26.7053 22.6875 27.4522 23.4301C28.1993 24.1726 28.5729 25.0799 28.5729 26.1518C28.5729 27.2237 28.1993 28.133 27.4522 28.8796C26.7051 29.6265 25.7978 30 24.7305 30ZM24.7333 7.88C25.3019 7.88 25.7833 7.68197 26.1775 7.2859C26.5716 6.89007 26.7687 6.40797 26.7687 5.83959C26.7687 5.27098 26.5708 4.78959 26.175 4.39544C25.7791 4.00128 25.297 3.80421 24.7287 3.80421C24.16 3.80421 23.6787 4.00212 23.2845 4.39795C22.8901 4.79378 22.6929 5.27588 22.6929 5.84426C22.6929 6.41287 22.8909 6.89426 23.287 7.28841C23.6828 7.6828 24.165 7.88 24.7333 7.88ZM7.27425 18.0379C7.84286 18.0379 8.32425 17.84 8.7184 17.4442C9.1128 17.0481 9.30999 16.5659 9.30999 15.9975C9.30999 15.4291 9.11196 14.9477 8.71589 14.5533C8.32006 14.1592 7.83796 13.9621 7.26958 13.9621C6.70097 13.9621 6.21958 14.16 5.82543 14.5558C5.43127 14.9519 5.2342 15.4341 5.2342 16.0025C5.2342 16.5709 5.43211 17.0523 5.82794 17.4467C6.22377 17.8408 6.70587 18.0379 7.27425 18.0379ZM24.7333 28.1958C25.3019 28.1958 25.7833 27.9979 26.1775 27.6021C26.5716 27.2062 26.7687 26.7241 26.7687 26.1557C26.7687 25.5871 26.5708 25.1057 26.175 24.7116C25.7791 24.3172 25.297 24.12 24.7287 24.12C24.16 24.12 23.6787 24.318 23.2845 24.7141C22.8901 25.1099 22.6929 25.592 22.6929 26.1604C22.6929 26.729 22.8909 27.2104 23.287 27.6046C23.6828 27.9987 24.165 28.1958 24.7333 28.1958Z" fill="#131212"/>
</svg>

<svg xmlns="http://www.w3.org/2000/svg" viewBox="0 0 32 32">
  <path fill="currentColor" d="M24.73 30c-1.067 0-1.974-.374-2.72-1.122-.748-.748-1.12-1.657-1.12-2.726 0-.175.016-.373.05-.593.033-.22.086-.419.16-.596l-10.995-6.432c-.353.403-.78.723-1.277.958a3.601 3.601 0 0 1-1.556.353c-1.067 0-1.974-.374-2.721-1.121-.747-.747-1.121-1.654-1.121-2.722 0-1.067.374-1.974 1.12-2.72.748-.747 1.655-1.12 2.722-1.12.543 0 1.058.108 1.544.325.486.218.916.528 1.29.931l10.993-6.393a2.454 2.454 0 0 1-.16-.573 3.836 3.836 0 0 1-.05-.607c0-1.067.374-1.974 1.12-2.721C22.758 2.374 23.665 2 24.733 2c1.067 0 1.974.373 2.72 1.12.747.747 1.12 1.654 1.12 2.72 0 1.075-.373 1.985-1.12 2.728-.747.744-1.654 1.116-2.721 1.116-.545 0-1.06-.1-1.548-.3-.487-.2-.91-.5-1.27-.904l-10.985 6.296c.057.181.102.386.136.613a3.462 3.462 0 0 1 0 1.184 4.233 4.233 0 0 1-.136.569l10.985 6.354a4.17 4.17 0 0 1 1.246-.861 3.78 3.78 0 0 1 1.572-.319c1.067 0 1.974.372 2.721 1.114.747.743 1.12 1.65 1.12 2.722s-.373 1.981-1.12 2.728c-.747.747-1.654 1.12-2.722 1.12Zm.003-22.12a1.96 1.96 0 0 0 1.444-.594 1.97 1.97 0 0 0 .592-1.446 1.96 1.96 0 0 0-.594-1.445 1.973 1.973 0 0 0-1.446-.59 1.96 1.96 0 0 0-1.444.593 1.972 1.972 0 0 0-.592 1.446c0 .569.198 1.05.594 1.444a1.97 1.97 0 0 0 1.446.592ZM7.274 18.038a1.96 1.96 0 0 0 1.444-.594 1.97 1.97 0 0 0 .592-1.446 1.96 1.96 0 0 0-.594-1.445 1.973 1.973 0 0 0-1.446-.59 1.96 1.96 0 0 0-1.445.593 1.974 1.974 0 0 0-.59 1.447c0 .568.197 1.05.593 1.444.396.394.878.59 1.446.59Zm17.46 10.158a1.96 1.96 0 0 0 1.443-.594 1.97 1.97 0 0 0 .592-1.446 1.96 1.96 0 0 0-.594-1.444 1.972 1.972 0 0 0-1.446-.592 1.96 1.96 0 0 0-1.444.594 1.972 1.972 0 0 0-.592 1.446c0 .569.198 1.05.594 1.445.396.394.878.59 1.446.59Z"/>
</svg>
